X:1
T:Pascit aves, vestit flores
T:Daniel Friderici
T:Source : Bicinia sacra---Rostock---J.Richelius---1642. Editor : André Vierendeels (12/07/17).
T:Notes : Original clefs : G2, G2 Editorial accidentals above the staff Original note values have been quartered in 3-beat measures 
T:Pascit aves, vestit flores
T:©
T:©
C:Daniel Friderici
Z:©
%%score [ 1 2 ]
L:1/8
Q:1/4=120
M:6/4
K:F
V:1 treble nm="Soprano 1" snm="S 1"
V:2 treble nm="Soprano 2" snm="S 2"
V:1
 A2 A2 d2 ^c4 f2 | e4 d2 ^c4 z2 | A2 A2 d2 ^c4 f2 | e4 d2 ^c4 f2 | e4 d2 ^c4 d2 | %5
w: Pa- scit a- ves, ve-|stit flo- res,|pa- scit a- ves, ve-|stit flo- res, ve-|stit flo- res, flo-|
[M:2/2] e4 z2 ^f2 | g6 g2 | a4 e2 d2 | e2 f2 g2 f2 | e4 f4 | e8 | d8 :: f4 e2 d2 | c2 B2 A4 | %14
w: res, cur|pa- bu-|la ve- *||||stes,|non da- bit|hic no- bis,|
 z2 f2 e2 d2 | c2 B2 A4 | d2 de f2 g2 | a4 d4 | d2 de f2 g2 | a4 d4 | d2 de f2 g2 | a3 g f2 ed | %22
w: non da- bit|hic no- bis,|cu- jus i- ma- go|su- mus?|Cu- jus i- ma- go|su- mus?|Cu- jus i- ma- go|su- * * * *|
 c2 A2 d4- |"^-natural" d2 cB ^c4 | d8 :| %25
w: ||mus?|
V:2
 z6 A2 A2 d2 | ^c4 f2 e4 d2 | ^c4 z2 A2 A2 d2 | ^c4 f2 e4 d2 | ^c4 f2 e4 d2 |[M:2/2] ^c4 d4 | %6
w: Pa- scit a-|ves, ve- stit flo-|res, pa- scit a-|ves, flo- res ve-|stit flo- res, flo-|res, cur|
 e6 e2 | f4 g4- | g2 f2 e2 d2 | c2 A2 d4- | d2 ^c=B c4 | d8 :: d4 c2 B2 | A2 G2 A4 | z2 a2 g2 f2 | %15
w: pa- bu-|la ve-||||stes,|non da- bit|hic no- bis,|non da- bit|
 e2 d2 e4 | z8 | d2 de f2 g2 | a4 d4 | d2 de f2 g2 | a4 d4 | d2 de f2 g2 | a3 g f2 ed | e8 | d8 :| %25
w: hic no- bis,||cu- jus i- ma- go|su- mus?|Cu- jus i- ma- go|su- mus?|Cu- jus i- ma- go|su- * * * *||mus?|

